images/thumbnails/street-vendor.svg

<svg clip-rule="evenodd" fill-rule="evenodd" stroke-linejoin="round" stroke-miterlimit="2" viewBox="0 0 60 80" xmlns="http://www.w3.org/2000/svg"><path d="m-.468.582h241.376v117.496h-241.376z" fill="#d8d3cb" transform="matrix(.248575 0 0 .0678962 .116218 71.9829)"/><g fill-rule="nonzero"><path d="m0-6.076-2.722-1.814-1.979-5.608-4.569 1.303-1.45 3.562-3.133 1.568 6.633 14.487z" fill="#c9ac9a" transform="matrix(.44931076 0 0 .44931076 34.57860865 23.5819593584)"/><path d="m0-12.067.996 5.3-1.372 6.767-2.47-1.386.707-5.82-.163 1.764-2.297-.571 1.938-4.311z" fill="#c9ac9a" transform="matrix(.44931076 0 0 .44931076 38.0220980116 41.812725756)"/><path d="m-2.15-6.539h8.493l-.938 5.725-8.198-1.061z" fill="#71964f" transform="matrix(-.06131216798 .44510775856 .44510775856 .06131216798 31.3796929328 69.798771708)"/><path d="m0-9.715.595 9.727h4.035l.669-1.897-1.191-7.842z" fill="#71964f" transform="matrix(.44931076 0 0 .44931076 31.6982082692 72.32623318)"/><path d="m-9.484-14.377h29.823l-.687 3.052-32.908.875z" fill="#c9ac9a" transform="matrix(.06169390523 .44505469036 .44505469036 -.06169390523 41.946066856 27.4127404436)"/><path d="m0-45.243.171 45.208 4.108.035 5.261-45.243" fill="#c9ac9a" transform="matrix(.44931076 0 0 .44931076 31.6215070308 67.955536228)"/><path d="m0-62.05 1.1 18.616-2.185 43.434h-4.709l-1.865-43.22z" fill="#a58c80" transform="matrix(.44931076 0 0 .44931076 31.2041433272 68.440579576)"/><path d="m0 22.275.964-22.275 2.822 3.932-.6 15.958" fill="#c9ac9a" transform="matrix(.44931076 0 0 .44931076 25.7445576688 21.2531144696)"/><path d="m0-66.347 5.476-2.259 2.185 5.381 7.732.224 2.601-4.796 4.984 3.422-3.347 4.422-.415 18.626 6.922 43.362-28.665.224 6.616-43.106-1.261-21.485z" fill="#71974f" transform="matrix(.44931076 0 0 .44931076 26.1942222168 51.041285736)"/><path d="m0 14.485-1.88-14.366-6.691-3.285.008-.116-6.563 4.081-1.279 13.367 1.678 3.12 12.468.481z" fill="#55433b" transform="matrix(.44931076 0 0 .44931076 35.1697530192 11.4365942124)"/><path d="m-27.007-9.598h41.465l-4.233-28.352-39.257 12.386z" fill="#e5e3de" transform="matrix(.06980591028 .44385534904 .44385534904 -.06980591028 41.1900219 44.868392712)"/><path d="m-16.469 2.641h16.469l-.48-2.641h-15.509z" fill="#55433b" transform="matrix(-.44931076 0 0 .44931076 27.7700647264 33.119800808)"/><path d="m0 15.254h3.268l3.52-4.525-.629-9.681-6.278-1.048-3.902 1.552.126 9.177z" fill="#c9ac9a" transform="matrix(.44931076 0 0 .44931076 30.8933405692 12.5655317204)"/><path d="m0-12.784-7.9 11.658 1.679 1.126 9.119-11.816" fill="#c9ac9a" transform="matrix(.44931076 0 0 .44931076 25.874008698 35.499025108)"/><path d="m-5.91 1.996h3.293l1.449-4.638-1.454-.349-2.626 3.077" fill="#c9ac9a" transform="matrix(-.35864550924 .27065489576 .27065489576 .35864550924 20.4188100108 36.38314132)"/><path d="m.417 4.625h4.416l1.767-3.533-2.65-3.533z" fill="#a02e2c" transform="matrix(.20093778627 -.40187486496 -.40187486496 -.20093778627 21.02145249 36.423119364)"/><path d="m0-55.3h7.9v55.3z" fill="#7a705d" transform="matrix(.44931076 0 0 .44931076 10.372787478 72.216912688)"/><path d="m0-55.3 7.9 55.3h-7.9z" fill="#948976" transform="matrix(.44931076 0 0 .44931076 10.372787478 72.216912688)"/><path d="m0-55.3h7.9v55.3z" fill="#7a705d" transform="matrix(.44931076 0 0 .44931076 45.868160624 72.216912688)"/><path d="m0-55.3 7.9 55.3h-7.9z" fill="#948976" transform="matrix(.44931076 0 0 .44931076 45.868160624 72.216912688)"/><path d="m2.184-9.249h8.832l-7.066 14.131-5.299-7.066z" fill="#fce887" transform="matrix(-.24499465212 .48998930424 .48998930424 .24499465212 29.3810737632 41.140528556)"/><path d="m.417 4.625h4.416l1.767-3.533-2.65-3.533-1.063-.475-3.565 7.002z" fill="#e49f7b" transform="matrix(.26531977272 -.53063954544 -.53063954544 -.26531977272 19.92105505996 44.2836519056)"/><path d="m.417 4.625h4.416l1.767-3.533-2.65-3.533z" fill="#e49f7b" transform="matrix(.26531977272 -.53063954544 -.53063954544 -.26531977272 16.45043015876 44.2836519056)"/><path d="m.417 4.625h4.416l1.767-3.533-2.65-3.533z" fill="#a02e2c" transform="matrix(.20093778627 -.40187486496 -.40187486496 -.20093778627 14.53714465476 45.3053916496)"/><path d="m.417 4.625h4.416l1.767-3.533-2.65-3.533z" fill="#77272c" transform="matrix(.25637459693 -.51274848628 -.51274848628 -.25637459693 17.36886380676 45.4171886576)"/><path d="m.417 4.625h4.416l1.767-3.533-2.65-3.533z" fill="#a02e2c" transform="matrix(.25637459693 -.51274848628 -.51274848628 -.25637459693 21.29576909156 45.4171886576)"/><path d="m.417 4.625h4.416l1.767-3.533-2.65-3.533-1.063-.475-3.565 7.002z" fill="#93b873" transform="matrix(-.26531977272 -.53063954544 .53063954544 -.26531977272 34.6197718838 44.65332852468)"/><path d="m.417 4.625h4.416l1.767-3.533-2.65-3.533z" fill="#93b873" transform="matrix(-.26531977272 -.53063954544 .53063954544 -.26531977272 38.090396785 44.65332852468)"/><path d="m.417 4.625h4.416l1.767-3.533-2.65-3.533z" fill="#71974f" transform="matrix(-.20093778627 -.40187486496 .40187486496 -.20093778627 40.003682289 45.67506826868)"/><path d="m.417 4.625h4.416l1.767-3.533-2.65-3.533z" fill="#4b8046" transform="matrix(-.25637459693 -.51274848628 .51274848628 -.25637459693 37.171963137 45.78686527668)"/><path d="m.417 4.625h4.416l1.767-3.533-2.65-3.533z" fill="#4b8046" transform="matrix(-.25637459693 -.51274848628 .51274848628 -.25637459693 33.2450578522 45.78686527668)"/><path d="m.417 4.625h4.416l1.767-3.533-2.65-3.533-1.063-.475-3.565 7.002z" fill="#93b873" transform="matrix(-.26531977272 -.53063954544 .53063954544 -.26531977272 38.2043518998 44.65332852468)"/><path d="m.417 4.625h4.416l1.767-3.533-2.65-3.533z" fill="#93b873" transform="matrix(-.26531977272 -.53063954544 .53063954544 -.26531977272 41.674976801 44.65332852468)"/><path d="m.417 4.625h4.416l1.767-3.533-2.65-3.533z" fill="#71974f" transform="matrix(-.20093778627 -.40187486496 .40187486496 -.20093778627 43.588262305 45.67506826868)"/><path d="m.417 4.625h4.416l1.767-3.533-2.65-3.533z" fill="#4b8046" transform="matrix(-.25637459693 -.51274848628 .51274848628 -.25637459693 40.756543153 45.78686527668)"/><path d="m.417 4.625h4.416l1.767-3.533-2.65-3.533z" fill="#71974f" transform="matrix(-.25637459693 -.51274848628 .51274848628 -.25637459693 36.8296378682 45.78686527668)"/></g><path d="m1106 462.405h94.8v7.9h-94.8z" fill="#948976" transform="matrix(-.44931076 0 0 .44931076 548.13107816 -163.942945496)"/></svg>

<?xml version="1.0" encoding="UTF-8" standalone="no"?>
<!DOCTYPE svg PUBLIC "-//W3C//DTD SVG 1.1//EN" "http://www.w3.org/Graphics/SVG/1.1/DTD/svg11.dtd">
<svg width="100%" height="100%" viewBox="0 0 60 80" version="1.1" xmlns="http://www.w3.org/2000/svg" xmlns:xlink="http://www.w3.org/1999/xlink" xml:space="preserve" xmlns:serif="http://www.serif.com/" style="fill-rule:evenodd;clip-rule:evenodd;stroke-linejoin:round;stroke-miterlimit:2;">
    <g id="street-vendor">
        <g transform="matrix(0.248575,-9.48079e-20,-3.49091e-19,0.0678962,0.116218,71.9829)">
            <rect x="-0.468" y="0.582" width="241.376" height="117.496" style="fill:rgb(216,211,203);"/>
        </g>
        <g transform="matrix(0.351303,0,0,0.351303,5.4088,-5.12563)">
            <g id="vendor-table">
                <g transform="matrix(1.27,0,0,1.27,83.2375,82.2068)">
                    <path d="M0,-6.076L-2.722,-7.89L-4.701,-13.498L-9.27,-12.195L-10.72,-8.633L-13.853,-7.065L-7.22,7.422L0,-6.076Z" style="fill:rgb(201,172,154);fill-rule:nonzero;"/>
                </g>
                <g transform="matrix(1.27,0,0,1.27,92.9707,133.737)">
                    <path d="M0,-12.067L0.996,-6.767L-0.376,0L-2.846,-1.386L-2.139,-7.206L-2.302,-5.442L-4.599,-6.013L-2.661,-10.324L0,-12.067Z" style="fill:rgb(201,172,154);fill-rule:nonzero;"/>
                </g>
                <g transform="matrix(-0.173302,1.25812,1.25812,0.173302,74.1956,212.841)">
                    <path d="M-2.15,-6.539L6.343,-6.539L5.405,-0.814L-2.793,-1.875L-2.15,-6.539Z" style="fill:rgb(113,150,79);fill-rule:nonzero;"/>
                </g>
                <g transform="matrix(1.27,0,0,1.27,75.0959,219.985)">
                    <path d="M0,-9.715L0.595,0.012L4.63,0.012L5.299,-1.885L4.108,-9.727L0,-9.715Z" style="fill:rgb(113,150,79);fill-rule:nonzero;"/>
                </g>
                <g transform="matrix(0.174381,1.25797,1.25797,-0.174381,104.062,93.0347)">
                    <path d="M-9.484,-14.377L20.339,-14.377L19.652,-11.325L-13.256,-10.45L-9.484,-14.377Z" style="fill:rgb(201,172,154);fill-rule:nonzero;"/>
                </g>
                <g transform="matrix(1.27,0,0,1.27,74.8791,207.631)">
                    <path d="M0,-45.243L0.171,-0.035L4.279,0L9.54,-45.243" style="fill:rgb(201,172,154);fill-rule:nonzero;"/>
                </g>
                <g transform="matrix(1.27,0,0,1.27,73.6994,209.002)">
                    <path d="M0,-62.05L1.1,-43.434L-1.085,0L-5.794,0L-7.659,-43.22L0,-62.05Z" style="fill:rgb(165,140,128);fill-rule:nonzero;"/>
                </g>
                <g transform="matrix(1.27,0,0,1.27,58.2676,75.6242)">
                    <path d="M0,22.275L0.964,0L3.786,3.932L3.186,19.89" style="fill:rgb(201,172,154);fill-rule:nonzero;"/>
                </g>
                <g transform="matrix(1.27,0,0,1.27,59.5386,159.822)">
                    <path d="M0,-66.347L5.476,-68.606L7.661,-63.225L15.393,-63.001L17.994,-67.797L22.978,-64.375L19.631,-59.953L19.216,-41.327L26.138,2.035L-2.527,2.259L4.089,-40.847L2.828,-62.332L0,-66.347Z" style="fill:rgb(113,151,79);fill-rule:nonzero;"/>
                </g>
                <g transform="matrix(1.27,0,0,1.27,84.9084,47.8773)">
                    <path d="M0,14.485L-1.88,0.119L-8.571,-3.166L-8.563,-3.282L-15.126,0.799L-16.405,14.166L-14.727,17.286L-2.259,17.767L0,14.485Z" style="fill:rgb(85,67,59);fill-rule:nonzero;"/>
                </g>
                <g transform="matrix(0.19731,1.25458,1.25458,-0.19731,101.925,142.374)">
                    <path d="M-27.007,-9.598L14.458,-9.598L10.225,-37.95L-29.032,-25.564L-27.007,-9.598Z" style="fill:rgb(229,227,222);fill-rule:nonzero;"/>
                </g>
                <g transform="matrix(-1.27,0,0,1.27,63.9928,109.166)">
                    <path d="M-16.469,2.641L0,2.641L-0.48,0L-15.989,0L-16.469,2.641Z" style="fill:rgb(85,67,59);fill-rule:nonzero;"/>
                </g>
                <g transform="matrix(1.27,0,0,1.27,72.8209,51.0683)">
                    <path d="M0,15.254L3.268,15.254L6.788,10.729L6.159,1.048L-0.119,0L-4.021,1.552L-3.895,10.729L0,15.254Z" style="fill:rgb(201,172,154);fill-rule:nonzero;"/>
                </g>
                <g transform="matrix(1.27,0,0,1.27,58.6335,115.891)">
                    <path d="M0,-12.784L-7.9,-1.126L-6.221,0L2.898,-11.816" style="fill:rgb(201,172,154);fill-rule:nonzero;"/>
                </g>
                <g transform="matrix(-1.01373,0.76502,0.76502,1.01373,43.2141,118.39)">
                    <path d="M-5.91,1.996L-2.617,1.996L-1.168,-2.642L-2.622,-2.991L-5.248,0.086" style="fill:rgb(201,172,154);fill-rule:nonzero;"/>
                </g>
                <g transform="matrix(0.567961,-1.13592,-1.13592,-0.567961,44.9175,118.503)">
                    <path d="M0.417,4.625L4.833,4.625L6.6,1.092L3.95,-2.441L0.417,4.625Z" style="fill:rgb(160,46,44);fill-rule:nonzero;"/>
                </g>
                <g transform="matrix(0.567961,-1.13592,-1.13592,-0.567961,42.3775,140.296)">
                    <path d="M0.417,4.625L4.833,4.625L6.6,1.092L3.95,-2.441L0.417,4.625Z" style="fill:rgb(228,159,123);fill-rule:nonzero;"/>
                </g>
                <g transform="matrix(0.567961,-1.13592,-1.13592,-0.567961,79.652,145.376)">
                    <path d="M0.417,4.625L4.833,4.625L6.6,1.092L3.95,-2.441L0.417,4.625Z" style="fill:rgb(75,128,70);fill-rule:nonzero;"/>
                </g>
                <g transform="matrix(-0.567961,1.13592,1.13592,0.567961,66.6021,132.476)">
                    <path d="M2.184,-9.249L11.016,-9.249L3.95,4.882L-1.349,-2.184L2.184,-9.249Z" style="fill:rgb(252,232,135);fill-rule:nonzero;"/>
                </g>
                <g transform="matrix(0.567961,-1.13592,-1.13592,-0.567961,84.732,140.296)">
                    <path d="M0.417,4.625L4.833,4.625L6.6,1.092L3.95,-2.441L0.417,4.625Z" style="fill:rgb(147,184,115);fill-rule:nonzero;"/>
                </g>
                <g transform="matrix(0.567961,-1.13592,-1.13592,-0.567961,99.972,140.296)">
                    <path d="M0.417,4.625L4.833,4.625L6.6,1.092L3.95,-2.441L0.417,4.625Z" style="fill:rgb(147,184,115);fill-rule:nonzero;"/>
                </g>
                <g transform="matrix(0.567961,-1.13592,-1.13592,-0.567961,88.542,142.836)">
                    <path d="M0.417,4.625L4.833,4.625L6.6,1.092L3.95,-2.441L0.417,4.625Z" style="fill:rgb(75,128,70);fill-rule:nonzero;"/>
                </g>
                <g transform="matrix(0.567961,-1.13592,-1.13592,-0.567961,94.892,144.106)">
                    <path d="M0.417,4.625L4.833,4.625L6.6,1.092L3.95,-2.441L0.417,4.625Z" style="fill:rgb(113,151,79);fill-rule:nonzero;"/>
                </g>
                <g transform="matrix(0.567961,-1.13592,-1.13592,-0.567961,102.512,142.836)">
                    <path d="M0.417,4.625L4.833,4.625L6.6,1.092L3.95,-2.441L0.417,4.625Z" style="fill:rgb(75,128,70);fill-rule:nonzero;"/>
                </g>
                <g transform="matrix(0.567961,-1.13592,-1.13592,-0.567961,34.948,140.296)">
                    <path d="M0.417,4.625L4.833,4.625L6.6,1.092L3.95,-2.441L0.417,4.625Z" style="fill:rgb(228,159,123);fill-rule:nonzero;"/>
                </g>
                <g transform="matrix(0.567961,-1.13592,-1.13592,-0.567961,29.868,145.376)">
                    <path d="M0.417,4.625L4.833,4.625L6.6,1.092L3.95,-2.441L0.417,4.625Z" style="fill:rgb(160,46,44);fill-rule:nonzero;"/>
                </g>
                <g transform="matrix(0.567961,-1.13592,-1.13592,-0.567961,37.488,142.836)">
                    <path d="M0.417,4.625L4.833,4.625L6.6,1.092L3.95,-2.441L0.417,4.625Z" style="fill:rgb(119,39,44);fill-rule:nonzero;"/>
                </g>
                <g transform="matrix(0.567961,-1.13592,-1.13592,-0.567961,46.1875,142.836)">
                    <path d="M0.417,4.625L4.833,4.625L6.6,1.092L3.95,-2.441L0.417,4.625Z" style="fill:rgb(160,46,44);fill-rule:nonzero;"/>
                </g>
                <g transform="matrix(0.567961,-1.13592,-1.13592,-0.567961,110.132,142.836)">
                    <path d="M0.417,4.625L4.833,4.625L6.6,1.092L3.95,-2.441L0.417,4.625Z" style="fill:rgb(147,184,115);fill-rule:nonzero;"/>
                </g>
                <g transform="matrix(1.27,0,0,1.27,14.8185,219.676)">
                    <path d="M0,-55.3L7.9,-55.3L7.9,0L0,-55.3Z" style="fill:rgb(122,112,93);fill-rule:nonzero;"/>
                </g>
                <g transform="matrix(1.27,0,0,1.27,14.8185,219.676)">
                    <path d="M0,-55.3L7.9,0L0,0L0,-55.3Z" style="fill:rgb(148,137,118);fill-rule:nonzero;"/>
                </g>
                <g transform="matrix(1.27,0,0,1.27,115.148,219.676)">
                    <path d="M0,-55.3L7.9,-55.3L7.9,0L0,-55.3Z" style="fill:rgb(122,112,93);fill-rule:nonzero;"/>
                </g>
                <g transform="matrix(1.27,0,0,1.27,115.148,219.676)">
                    <path d="M0,-55.3L7.9,0L0,0L0,-55.3Z" style="fill:rgb(148,137,118);fill-rule:nonzero;"/>
                </g>
                <g transform="matrix(-1.27,0,0,1.27,1534.82,-447.842)">
                    <rect x="1106" y="462.405" width="94.8" height="7.9" style="fill:rgb(148,137,118);"/>
                </g>
            </g>
        </g>
    </g>
</svg>
